!!!!SEGMENT: pl-gd--ee-1638--008-009_marenzio-luca--il-quarto-libro-de-madrigalia-a-sei-voci-dice-la-mia-bellissima-licori.krn
!!!cenid: 15xx:871
!!!COM: Marenzio, Luca
!!!COM-rismID: pe30003955
!!!CDT: ~1553-1599/08/22
!!!CNT: Italian
!!!GTL: Il Quarto Libro de madrigalia a sei voci
!!!OTL: Dice la mia bellissima Licori
!!!OMV: 009
!!!PDT: 1587
!!!AGN:
!!!YEC: Copyright 2022 Narodowy Instytut Fryderyka Chopina (https://polishscores.org)
!!!YEM: License CC-BY-4.0 (https://creativecommons.org/licenses/by/4.0)
!!!SMS-siglum: PL-GD
!!!SMS-shelfmark: Ee 1638
!!!SMS-variant:
!!!SMS-altvar:
!!!SMS-shelfwork: 008-009 G
!!!NIFC-rismSourceID: 1001202747
!!!NIFC-rismChildID: 990039254
!!!NIFC-islandoraID: pl-gd:57883
!!!URL-pdf-islandora: https://repozytorium.nifc.pl/islandora/object/pl-gd%3A57883/datastream/PDF/view
!!!URL-scan: https://polish.musicsources.pl/pl/lokalizacje/galeria/klocki-introligatorskie/655 @EN{Scan on Polish Music Sources Website} @PL{Skany w portalu Dziedzictwo Muzyki Polskiej w otwartym dostępie}
!!!IIIF: https://repozytorium.nifc.pl/islandora/object/pl-gd%3A57883/datastream/IIIF/view
!!!ONB-nifc: UWAGA: zbiór na stronach: Canto: s. 706-716, Alto: s. 554-564, Tenore: s. 402-412, Basso: s.250-260, Quinto: s. 98-108, Sesto: s. 16-26. Uwaga: utwory podzielone wg tytułów w spisach treści dostępnych na końcu każdej księgi głosowej.
!!!AIN: 1 alto 1 bass 1 soprn 1 tenor 2 vox
!!!key: C
**kern	**text	**kern	**text	**kern	**text	**kern	**text	**kern	**text	**kern	**text
*part6	*	*part5	*	*part4	*	*part3	*	*part2	*	*part1	*
*staff6	*	*staff5	*	*staff4	*	*staff3	*	*staff2	*	*staff1	*
*I"SESTO	*	*I"QVINTO	*	*I"BASSO	*	*I"TENORE	*	*I"ALTO	*	*I"CANTO	*
*I'V II	*	*I'V I	*	*I'B	*	*I'T	*	*I'A	*	*I'S	*
*ICvox	*	*ICvox	*	*ICvox	*	*ICvox	*	*ICvox	*	*ICvox	*
*Ivox	*	*Ivox	*	*Ibass	*	*Itenor	*	*Ialto	*	*Isoprn	*
*clefC3	*	*clefG2	*	*clefF3	*	*clefC3	*	*clefC2	*	*clefG2	*
*k[]	*	*k[]	*	*k[]	*	*k[]	*	*k[]	*	*k[]	*
*C:	*	*C:	*	*C:	*	*C:	*	*C:	*	*C:	*
*M2/1	*	*M2/1	*	*M2/1	*	*M2/1	*	*M2/1	*	*M2/1	*
*met(C)	*	*met(C)	*	*met(C)	*	*met(C)	*	*met(C)	*	*met(C)	*
=1-	=1-	=1-	=1-	=1-	=1-	=1-	=1-	=1-	=1-	=1-	=1-
*xywh-#20:4525,664,3337,797	*	*xywh-#102:1108,4326,3373,898	*	*xywh-#254:4792,616,3405,868	*	*xywh-#406:4777,515,3317,844	*	*xywh-#558:4670,557,3394,867	*	*xywh-#710:1319,4328,3369,867	*
2r	.	0r	.	0r	.	0r	.	0r	.	1g	DI-
1g	DI-	.	.	.	.	.	.	.	.	.	.
.	.	.	.	.	.	.	.	.	.	1dd	-ce
2f#X\	-ce	.	.	.	.	.	.	.	.	.	.
=2-	=2-	=2-	=2-	=2-	=2-	=2-	=2-	=2-	=2-	=2-	=2-
0r	.	1g	DI-	1G	DI-	1d	DI-	2r	.	4r	.
.	.	.	.	.	.	.	.	.	.	4b/	la
.	.	.	.	.	.	.	.	1g	DI-	4b/	mia
.	.	.	.	.	.	.	.	.	.	4cc\	bel-
.	.	1a	-ce	1D	-ce	1d	-ce	.	.	4.dd\	-liſ-
.	.	.	.	.	.	.	.	.	.	8dd\	-ſi-
.	.	.	.	.	.	.	.	2f#X\	-ce	4dd\	-ma
.	.	.	.	.	.	.	.	.	.	4a/	Li-
=3-	=3-	=3-	=3-	=3-	=3-	=3-	=3-	=3-	=3-	=3-	=3-
4r	.	4r	.	4E/	la	4B/	la	4g#X\	la	2ee\	-co-
4e\	la	4b/	la	2E/	mia	2B/	mia	2g#\	mia	.	.
4e\	mia	4b/	mia	.	.	.	.	.	.	2ee\	-ri
4e\	bel-	4cc\	bel-	4A\	bel-	4A/	bel-	4a\	bel-	.	.
4.g\	-liſ-	4.dd\	-liſ-	4.G\	-liſ-	4.d\	-liſ-	4.b\	-liſ-	1r	.
8g\	-ſi-	8dd\	-ſi-	8G\	-ſi-	8B/	-ſi-	8b\	-ſi-	.	.
4d\	-ma	4dd\	-ma	4G\	-ma	4G/	-ma	4b\	-ma	.	.
4d\	Li-	4a/	Li-	4F/	Li-	4A/	Li-	4a\	Li-	.	.
=4-	=4-	=4-	=4-	=4-	=4-	=4-	=4-	=4-	=4-	=4-	=4-
2e\	-co-	2ee\	-co-	2E/	-co-	2B/	-co-	2g#X\	-co-	1r	.
2e\	-ri	2ee\	-ri	2E/	-ri	2B/	-ri	2g#\	-ri	.	.
4e\	Quã(n)-	1r	.	4A\	Quã(n)-	1r	.	4a\	Quã(n)-	4cc\	Quã(n)-
8e\	-do	.	.	8A\	-do	.	.	8a\	-do	8cc\	-do
8e\	tal-	.	.	8A\	tal-	.	.	8a\	tal-	8cc\	tal-
*	*	*	*	*	*	*	*	*custos:g	*	*	*
!	!	!	!	!	!	!	!	!LO:LB:g=original	!	!	!
*	*	*	*	*	*	*	*	*xywh-#558:4724,1210,3363,775	*	*	*
4d\	-hor	.	.	4B\	-hor	.	.	4g#\	-hor	4dd\	-hor
!	!	!	!	!	!	!	!	!LO:N:acc=#	!	!	!
4g\	fa-	.	.	4G\	fa-	.	.	4bn\	fa-	4dd\	fa-
*custos:e	*	*	*	*custos:c	*	*	*	*	*	*custos:ee	*
!LO:LB:g=original	!	!	!	!LO:LB:g=original	!	!	!	!	!	!LO:PB:g=original	!
=5-	=5-	=5-	=5-	=5-	=5-	=5-	=5-	=5-	=5-	=5-	=5-
*xywh-#20:4525,1378,3344,615	*	*	*	*xywh-#254:4822,1315,3320,713	*	*	*	*	*	*xywh-#710:4795,579,3415,791	*
2e\	-uel-	4cc\	Quã(n)-	4c\	-uel-	4A/	Quã(n)-	2a\	-uel-	4ee\	-uel-
.	.	8cc\	-do	4c\	-lo	8A/	-do	.	.	4ee\	-lo
.	.	8cc\	tal-	.	.	8A/	tal-	.	.	.	.
2d\	-lo	4dd\	-hor	2r	.	4B/	-hor	2gny\	-lo	2r	.
.	.	4dd\	fa-	.	.	4G/	fa-	.	.	.	.
*	*	*custos:ee	*	*	*	*custos:c	*	*	*	*	*
!	!	!LO:PB:g=original	!	!	!	!LO:LB:g=original	!	!	!	!	!
*	*	*xywh-#102:4585,649,3373,732	*	*	*	*xywh-#406:4777,1168,3386,729	*	*	*	*	*
4a\	Quan-	4ee\	-uel-	4A\	Quan-	4c/	-uel-	4e/	Quan-	4cc\	Quã(n)-
8a\	-do	4ee\	-lo	8A\	-do	4c/	-lo	8e/	-do	8cc\	-do
8e\	tal-	.	.	8A\	tal-	.	.	8a\	tal-	8cc\	tal-
4d\	-hor	2r	.	4B\	-hor	2r	.	4g\	-hor	4dd\	-hor
4g\	fa-	.	.	4G\	fa-	.	.	4b\	fa-	4dd\	fa-
=6-	=6-	=6-	=6-	=6-	=6-	=6-	=6-	=6-	=6-	=6-	=6-
4g\	-uel-	2r	.	4c\	-uel-	2r	.	4cc\	-uel-	4ee\	-uel-
4e\	-lo	.	.	4c\	-lo	.	.	4g\	-lo	4ee\	-lo
2r	.	4r	.	4r	.	4r	.	4r	.	4r	.
.	.	4.ff\	Se-	4.F/	Se-	4.c/	Se-	4.a\	Se-	4.cc\	Se-
1r	.	.	.	.	.	.	.	.	.	.	.
.	.	8gg\	-co	8E/	-co	8e\	-co	8g\	-co	8cc\	-co
.	.	4dd\	d'A-	4G\	d'A-	4d\	d'A-	4g\	d'A-	4b/	d'A-
.	.	1dd\	-mor	1D/	-mor	1d\	-mor	1f#X\	-mor	1a/	-mor
=7-	=7-	=7-	=7-	=7-	=7-	=7-	=7-	=7-	=7-	=7-	=7-
4r	.	.	.	.	.	.	.	.	.	.	.
2d\	ch'A-	.	.	.	.	.	.	.	.	.	.
.	.	4r	.	2G\	ch'A-	4r	.	4r	.	2r	.
4.g\	-mo-	4dd\	ch'A-	.	.	4G/	ch'A-	4b\	ch'A-	.	.
.	.	4.ee\	-mor	2C/	-mor	4.c/	-mor	4.cc\	-mor	2r	.
8e\	-rè un	.	.	.	.	.	.	.	.	.	.
4.a\	ſpi-	.	.	.	.	.	.	.	.	.	.
.	.	8cc\	è ũ(n)	.	.	8A/	è un	8cc\	è un	.	.
.	.	4.ff\	ſpi-	2r	.	4.d\	ſpi-	4.a\	ſpi-	4r	.
8g\	-ri-	.	.	.	.	.	.	.	.	.	.
4fny\	-tel-	.	.	.	.	.	.	.	.	4dd\	ch'A-
.	.	8dd\	-ri-	.	.	8d\	-ri-	8b\	-ri-	.	.
*	*	*	*	*	*	*	*	*custos:cc	*	*	*
!	!	!	!	!	!	!	!	!LO:LB:g=original	!	!	!
=8-	=8-	=8-	=8-	=8-	=8-	=8-	=8-	=8-	=8-	=8-	=8-
*	*	*	*	*	*	*	*	*xywh-#558:4739,1771,3333,691	*	*	*
4e\	-lo	4gg\	-tel-	4r	.	4c/	-tel-	2cc\	-tel-	4.ee\	-mor
4e\	è un	4gg\	-lo	4C/	è un	4c/	-lo	.	.	.	.
.	.	.	.	.	.	.	.	.	.	8cc\	è un
4.a\	ſpi-	4r	.	4.D/	ſpi-	4r	.	2fny\	-lo	4.ff\	ſpi-
.	.	4dd\	ch a-	.	.	4A/	Ch'A-	.	.	.	.
8f\	-ri-	.	.	8D/	-ri-	.	.	.	.	8dd\	-ri-
*custos:e	*	*	*	*custos:C	*	*	*	*	*	*	*
!LO:LB:g=original	!	!	!	!LO:LB:g=original	!	!	!	!	!	!	!
*xywh-#20:4560,1875,3309,636	*	*	*	*xywh-#254:4791,1834,3397,674	*	*	*	*	*	*	*
4e\	-tel-	4.ee\	-mor	4C/	-tel-	4.c/	-mor	4r	.	4gg\	-tel-
4e\	-lo	.	.	4C/	-lo	.	.	4g\	è un	4gg\	-lo
.	.	8cc\	è un	.	.	8e\	è un	.	.	.	.
*	*	*	*	*	*	*	*	*	*	*custos:dd	*
!	!	!	!	!	!	!	!	!	!	!LO:LB:g=original	!
*	*	*	*	*	*	*	*	*	*	*xywh-#710:4803,1256,3331,654	*
2r	.	4.ff\	ſpi-	2r	.	4.d\	ſpi-	4.a\	ſpi-	4r	.
.	.	.	.	.	.	.	.	.	.	4dd\	Che
.	.	8dd\	-ri-	.	.	8g\	-ri-	8b\	-ri-	.	.
*	*	*	*	*	*	*custos:c	*	*	*	*	*
!	!	!	!	!	!	!LO:LB:g=original	!	!	!	!	!
=9-	=9-	=9-	=9-	=9-	=9-	=9-	=9-	=9-	=9-	=9-	=9-
*	*	*	*	*	*	*xywh-#406:4754,1775,3456,606	*	*	*	*	*
4g\	Che	4gg\	-tel-	4r	.	4c/	-tel-	4cc\	-tel-	4ee\	va-
4e\	va-	4gg\	-lo	4C/	Che	4c/	-lo	4g\	-lo	2cc\	-ga e
2A/	-ga e	4r	.	4F/	va-	2r	.	4r	.	.	.
.	.	4aa\	Che	2D/	-ga e-	.	.	4f\	Che	4.dd\	vo-
*	*	*custos:ff	*	*	*	*	*	*	*	*	*
!	!	!LO:LB:g=original	!	!	!	!	!	!	!	!	!
*	*	*xywh-#102:4571,1306,3366,594	*	*	*	*	*	*	*	*	*
4.d\	vo-	4ff\	va-	.	.	4r	.	4a\	va-	.	.
.	.	.	.	.	.	.	.	.	.	8cc\	.
.	.	4dd\	-ga e-	4.G\	-vo-	4B/	Che	2d/	-ga e-	8b/	.
8c/	.	.	.	.	.	.	.	.	.	8a/	.
8B/	.	4.gg\	-vo-	.	.	4d\	va-	.	.	4g/	.
8A/	.	.	.	8F/	.	.	.	.	.	.	.
4G/	.	.	.	8E/	.	4e\	-ga e-	4.g\	-vo-	4cc\	-la e
.	.	8ff\	.	8D/	.	.	.	.	.	.	.
=10-	=10-	=10-	=10-	=10-	=10-	=10-	=10-	=10-	=10-	=10-	=10-
4G/	-la e	8ee\	.	2C/	.	4.g\	-vo-	.	.	8cc\	non
.	.	8dd\	.	.	.	.	.	8f\	.	8dd\	fi
4.g\	non	2cc\	.	.	.	.	.	8e/	.	8ee\	può
.	.	.	.	.	.	8f\	.	8d/	.	8ff\	te-
.	.	.	.	2C/	-la e	8e\	.	4c/	.	4gg\	-ne-
8f\	ſi	.	.	.	.	8d\	.	.	.	.	.
8e\	può	4cc\	-la e	.	.	2c/	.	4c/	-la	4gg\	-re
8d\	te-	.	.	.	.	.	.	.	.	.	.
4c/	-ne-	4.cc\	non	8F\	non	.	.	2r	.	1r	.
.	.	.	.	8G\	ſi	.	.	.	.	.	.
4f\	-re	.	.	8A\	può	4c/	-la e	.	.	.	.
.	.	8dd\	ſi	8B\	te-	.	.	.	.	.	.
4r	.	8ee\	può	4c\	-ne-	8c\	non	4g\	e	.	.
.	.	8ff\	te-	.	.	8d\	ſi	.	.	.	.
4g\	e	4.gg\	-ne-	4c\	-re	8e\	può	8c/	non	.	.
.	.	.	.	.	.	8f\	te-	8d/	ſi	.	.
=11-	=11-	=11-	=11-	=11-	=11-	=11-	=11-	=11-	=11-	=11-	=11-
8c/	non	.	.	4r	.	2g\	-ne-	8e/	può	4cc\	e
8d\	ſi	8ff\	.	.	.	.	.	8f\	te-	.	.
8e\	può	4.ee\	.	4C/	e	.	.	4.g\	-ne-	8cc\	non
8f\	te-	.	.	.	.	.	.	.	.	8dd\	fi
*custos:g	*	*	*	*	*	*	*	*	*	*	*
!LO:LB:g=original	!	!	!	!	!	!	!	!	!	!	!
*xywh-#20:4532,2420,3330,643	*	*	*	*	*	*	*	*	*	*	*
2.g\	-ne-	.	.	8C/	non	2c/	-re	.	.	8ee\	può
.	.	8dd\	.	8D/	ſi	.	.	8f\	.	8ff\	te-
.	.	2cc\	.	8E/	può	.	.	4e/	.	2gg\	-ne-
.	.	.	.	8F/	te-	.	.	.	.	.	.
*	*	*	*	*custos:G	*	*	*	*custos:d	*	*	*
!	!	!	!	!LO:LB:g=original	!	!	!	!LO:LB:g=original	!	!	!
*	*	*	*	*xywh-#254:4768,2385,3343,659	*	*	*	*xywh-#558:4716,2316,3371,698	*	*	*
.	.	.	.	4G\	-ne-	1r	.	2d/	-re	.	.
4g\	-re	4b/	-re	4G\	-re	.	.	.	.	4dd\	-re
2r	.	2r	.	2r	.	.	.	2r	.	2r	.
*	*	*	*	*	*	*	*	*	*	*custos:a	*
!	!	!	!	!	!	!	!	!	!	!LO:LB:g=original	!
=12-	=12-	=12-	=12-	=12-	=12-	=12-	=12-	=12-	=12-	=12-	=12-
*	*	*	*	*	*	*	*	*	*	*xywh-#710:4795,1773,3346,676	*
2.c/	Ne	2r	.	2.F/	Ne	2.A/	Ne	2.f\	Ne	2.a/	Ne
.	.	2.cc\	Ne	.	.	.	.	.	.	.	.
4c/	toc-	.	.	4F/	toc-	4A/	toc-	4f\	toc-	4a/	toc-
1c	-car	.	.	1F	-car	1A	-car	1f	-car	2a/	-car
.	.	4cc\	toc-	.	.	.	.	.	.	.	.
.	.	2cc\	-car	.	.	.	.	.	.	2.a/	ne
=13-	=13-	=13-	=13-	=13-	=13-	=13-	=13-	=13-	=13-	=13-	=13-
2d\	ne	2ff\	ne	2D/	ne	2A/	ne	2a\	ne	.	.
.	.	.	.	.	.	.	.	.	.	4d/	ve-
2d\	ve-	2ff\	ve-	2D/	ve-	2A/	ve-	2a\	ve-	2.dd\	-de-
*	*	*custos:ee	*	*	*	*custos:A	*	*	*	*	*
!	!	!LO:LB:g=original	!	!	!	!LO:LB:g=original	!	!	!	!	!
*	*	*xywh-#102:4564,1838,3407,608	*	*	*	*xywh-#406:4762,2281,3409,721	*	*	*	*	*
1e	-de-	1ee	-de-	1A	-de-	1A	-de-	1a	-de-	.	.
.	.	.	.	.	.	.	.	.	.	8cc\	.
.	.	.	.	.	.	.	.	.	.	8b\	.
.	.	.	.	.	.	.	.	.	.	2cc#X\	.
=14-	=14-	=14-	=14-	=14-	=14-	=14-	=14-	=14-	=14-	=14-	=14-
1d	-re	1ff	-re	1D	-re	1A	-re	0a	-re	0dd	-re
2r	.	1r	.	2d\	E	2f\	E	.	.	.	.
2a\	E	.	.	4d\	pur	4f\	pur	.	.	.	.
.	.	.	.	4d\	ſe	4f\	ſe	.	.	.	.
=15-	=15-	=15-	=15-	=15-	=15-	=15-	=15-	=15-	=15-	=15-	=15-
4a\	pur	00r	.	1d	gl'oc-	2.f\	gl'oc-	00r	.	00r	.
4a\	ſe	.	.	.	.	.	.	.	.	.	.
4a\	gl'oc-	.	.	.	.	.	.	.	.	.	.
4g\	-chi	.	.	.	.	4g\	-chi	.	.	.	.
8f\	gi-	.	.	1d	-chi	8a\	gi-	.	.	.	.
8e\	.	.	.	.	.	8g\	.	.	.	.	.
8d\	.	.	.	.	.	8f\	.	.	.	.	.
8e\	.	.	.	.	.	8e\	.	.	.	.	.
8f\	.	.	.	.	.	8d\	.	.	.	.	.
8g\	.	.	.	.	.	8e\	.	.	.	.	.
8a\	.	.	.	.	.	8f\	.	.	.	.	.
8f\	.	.	.	.	.	8d\	.	.	.	.	.
=16-	=16-	=16-	=16-	=16-	=16-	=16-	=16-	=16-	=16-	=16-	=16-
2g\	.	.	.	2c\	gi-	2e\	.	.	.	.	.
4g\	-ro	.	.	4c\	-ro	4e\	-ro	.	.	.	.
4a\	Ne i	.	.	4F/	Ne i	4f\	Ne i	.	.	.	.
*custos:d	*	*	*	*	*	*	*	*	*	*	*
!LO:LB:g=original	!	!	!	!	!	!	!	!	!	!	!
*xywh-#20:4525,2959,3344,636	*	*	*	*	*	*	*	*	*	*	*
4.d\	ſuoi	.	.	4.B-X\	ſuoi	4.f\	ſuoi	.	.	.	.
8c/	begl'	.	.	8A\	begl'	8f\	begl'	.	.	.	.
4d\	ob-	.	.	4G\	oc-	4g\	oc-	.	.	.	.
4f\	-chi il	.	.	4F/	-chi il	4a\	-chi il	.	.	.	.
*	*	*	*	*custos:c	*	*custos:g	*	*	*	*	*
!	!	!	!	!LO:LB:g=original	!	!LO:LB:g=original	!	!	!	!	!
=17-	=17-	=17-	=17-	=17-	=17-	=17-	=17-	=17-	=17-	=17-	=17-
*	*	*	*	*xywh-#254:4753,2913,3413,690	*	*xywh-#406:4739,2811,3440,683	*	*	*	*	*
2e\	mi-	1r	.	2c\	mi-	2g\	mi-	1r	.	1r	.
2e\	-ro	.	.	2c\	-ro	2g\	-ro	.	.	.	.
1r	.	2cc\	E	1r	.	1r	.	2a\	E	2r	.
.	.	4cc\	pur	.	.	.	.	4a\	pur	2ee\	E
.	.	4cc\	ſe	.	.	.	.	4a\	ſe	.	.
=18-	=18-	=18-	=18-	=18-	=18-	=18-	=18-	=18-	=18-	=18-	=18-
00r	.	2.cc\	gl'oc-	00r	.	00r	.	1a	gl'oc-	4ee\	pur
.	.	.	.	.	.	.	.	.	.	4ee\	ſe
.	.	.	.	.	.	.	.	.	.	4ee\	gl'oc-
.	.	4dd\	-chi	.	.	.	.	.	.	4dd\	-chi
.	.	8ee\	gi-	.	.	.	.	1a	-chi	8ccny\	gi-
.	.	8dd\	.	.	.	.	.	.	.	8b\	.
.	.	8cc\	.	.	.	.	.	.	.	8a/	.
.	.	8b\	.	.	.	.	.	.	.	8b\	.
.	.	8a/	.	.	.	.	.	.	.	8cc\	.
.	.	8b/	.	.	.	.	.	.	.	8dd\	.
.	.	8cc\	.	.	.	.	.	.	.	8ee\	.
.	.	8a/	.	.	.	.	.	.	.	8cc\	.
*	*	*	*	*	*	*	*	*	*	*custos:dd	*
!	!	!	!	!	!	!	!	!	!	!LO:LB:g=original	!
=19-	=19-	=19-	=19-	=19-	=19-	=19-	=19-	=19-	=19-	=19-	=19-
*	*	*	*	*	*	*	*	*	*	*xywh-#710:4826,2320,3415,646	*
.	.	2b/	.	.	.	.	.	2g\	gi-	2dd\	.
.	.	4b/	-ro	.	.	.	.	4g\	-ro	4dd\	-ro
.	.	4cc\	Ne i	.	.	.	.	4c/	Ne i	4ee\	Ne i
.	.	4.cc\	fuoi	.	.	.	.	4.f\	fuoi	4.a/	fuoi
.	.	8cc\	begl'	.	.	.	.	8e/	begl'	8g/	begl'
.	.	4ff\	oc-	.	.	.	.	4d/	oc-	4a/	oc-
.	.	4ee\	-chi il	.	.	.	.	4c/	-chi il	4cc\	-chi il
*	*	*	*	*	*	*	*	*custos:g	*	*	*
!	!	!	!	!	!	!	!	!LO:LB:g=original	!	!	!
=20-	=20-	=20-	=20-	=20-	=20-	=20-	=20-	=20-	=20-	=20-	=20-
*	*	*	*	*	*	*	*	*xywh-#558:4731,2846,3340,683	*	*	*
00r	.	2dd\	mi-	00r	.	00r	.	2g\	mi-	2b/	mi-
.	.	2dd\	-ro	.	.	.	.	2g\	-ro	2b/	-ro
*	*	*custos:cc	*	*	*	*	*	*	*	*	*
!	!	!LO:LB:g=original	!	!	!	!	!	!	!	!	!
*	*	*xywh-#102:4564,2377,3449,608	*	*	*	*	*	*	*	*	*
.	.	4.cc\	Ma	.	.	.	.	4.c/	Ma	4.ee\	Ma
.	.	8b/	no'l	.	.	.	.	8d/	no'l	8dd\	no'l
.	.	4a/	poſ-	.	.	.	.	4f\	poſ-	4cc\	poſ-
.	.	8a/	-ſo	.	.	.	.	8f\	-ſo	8cc\	-ſo
.	.	8g/	toc-	.	.	.	.	8g\	toc-	8b\	toc-
=21-	=21-	=21-	=21-	=21-	=21-	=21-	=21-	=21-	=21-	=21-	=21-
.	.	4f/	-car	.	.	.	.	2d/	-car	4a/	-car
*	*	*	*	*	*	*	*	*	*	*	*ij
.	.	8ff\	Ma	.	.	.	.	.	.	8dd\	Ma
.	.	8ee\	no'l	.	.	.	.	.	.	8cc\	no'l
.	.	4dd\	poſ-	.	.	.	.	2d/	che	4b/	pos-
.	.	8dd\	-ſo	.	.	.	.	.	.	8b/	-so
.	.	8cc\	toc-	.	.	.	.	.	.	8a/	toc-
.	.	4b\	-car	.	.	.	.	1e	ſol	4g/	-car
*	*	*	*ij	*	*	*	*	*	*	*	*Xij
.	.	8ee\	Ma	.	.	.	.	.	.	8gg\	Ma
.	.	8dd\	no'l	.	.	.	.	.	.	8ff\	no'l
*	*	*	*	*	*	*	*	*	*	*custos:ee	*
!	!	!	!	!	!	!	!	!	!	!LO:LB:g=original	!
*	*	*	*	*	*	*	*	*	*	*xywh-#710:4795,2838,3361,692	*
.	.	4cc\	pos-	.	.	.	.	.	.	4ee\	poſ-
.	.	8cc\	-so	.	.	.	.	.	.	8ee\	-ſo
.	.	8b\	toc-	.	.	.	.	.	.	8dd\	toc-
=22-	=22-	=22-	=22-	=22-	=22-	=22-	=22-	=22-	=22-	=22-	=22-
1r	.	4a/	-car	1r	.	1r	.	1f	ſi	4cc\	-car
*	*	*	*Xij	*	*	*	*	*	*	*	*
.	.	4cc\	che	.	.	.	.	.	.	4a/	che
.	.	4ff\	ſol	.	.	.	.	.	.	4dd\	ſol
.	.	4ee\	ſi	.	.	.	.	.	.	4cc\	ſi
2r	.	2dd\	toc-	2r	.	2r	.	2g\	toc-	2b/	toc-
4r	.	2dd\	-car	4r	.	4r	.	2g\	-ca	4b/	-ca
4g\	In	.	.	4G\	In	4d\	In	.	.	4b/	In
=23-	=23-	=23-	=23-	=23-	=23-	=23-	=23-	=23-	=23-	=23-	=23-
4.g\	quel-	00r	.	4.c\	quel-	4.e\	quel-	00r	.	4.cc\	quel-
8g\	-la	.	.	8c\	-la	8e\	-la	.	.	8cc\	-la
4g\	bel-	.	.	4c\	bel-	4e\	bel-	.	.	4cc\	bel-
4f\	-la	.	.	4d\	-la	4d\	-la	.	.	4a/	-la
2e\	boc-	.	.	2A\	boc-	2c#X/	boc-	.	.	2a/	boc-
2f\	-ca	.	.	2D/	-ca	2d\	-ca	.	.	1a/	-ca
=24-	=24-	=24-	=24-	=24-	=24-	=24-	=24-	=24-	=24-	=24-	=24-
2r	.	.	.	2d\	E	2f\	E	.	.	.	.
2a\	E	.	.	4d\	pur	4f\	pur	.	.	2r	.
.	.	.	.	4d\	ſe	4f\	ſe	.	.	.	.
4a\	pur	.	.	1d	gl'oc-	2.f\	gl'oc-	.	.	1r	.
4a\	ſe	.	.	.	.	.	.	.	.	.	.
4a\	gl'oc-	.	.	.	.	.	.	.	.	.	.
4g\	-chi	.	.	.	.	4g\	-chi	.	.	.	.
*custos:f	*	*	*	*	*	*	*	*	*	*	*
!LO:LB:g=original	!	!	!	!	!	!	!	!	!	!	!
=25-	=25-	=25-	=25-	=25-	=25-	=25-	=25-	=25-	=25-	=25-	=25-
*xywh-#20:4546,3505,3309,615	*	*	*	*	*	*	*	*	*	*	*
8f\	gi-	00r	.	1d	-chi	8a\	gi-	00r	.	00r	.
8e\	.	.	.	.	.	8g\	.	.	.	.	.
8d\	.	.	.	.	.	8f\	.	.	.	.	.
8e\	.	.	.	.	.	8e\	.	.	.	.	.
8f\	.	.	.	.	.	8d\	.	.	.	.	.
8g\	.	.	.	.	.	8e\	.	.	.	.	.
8a\	.	.	.	.	.	8f\	.	.	.	.	.
8f\	.	.	.	.	.	8d\	.	.	.	.	.
*	*	*	*	*	*	*custos:e	*	*	*	*	*
!	!	!	!	!	!	!LO:LB:g=original	!	!	!	!	!
*	*	*	*	*	*	*xywh-#406:4716,3311,3394,721	*	*	*	*	*
2g\	.	.	.	2c\	gi-	2e\	.	.	.	.	.
4g\	-ro	.	.	4c\	-ro	4e\	-ro	.	.	.	.
4a\	Ne i	.	.	4F/	Ne i	4f\	Ne i	.	.	.	.
*	*	*custos:cc	*	*custos:B-	*	*	*	*	*	*	*
!	!	!LO:LB:g=original	!	!LO:LB:g=original	!	!	!	!	!	!	!
=26-	=26-	=26-	=26-	=26-	=26-	=26-	=26-	=26-	=26-	=26-	=26-
*	*	*xywh-#102:4550,2903,3373,642	*	*xywh-#254:4729,3440,3444,674	*	*	*	*	*	*	*
4.d\	fuoi	.	.	4.B-X\	ſuoi	4.f\	ſuoi	.	.	.	.
8c/	begl'	.	.	8A\	begl'	8f\	begl'	.	.	.	.
4d\	oc-	.	.	4G\	oc-	4g\	oc-	.	.	.	.
4f\	-chi il	.	.	4F/	-chi il	4a\	-chi il	.	.	.	.
2e\	mi-	.	.	2c\	mi-	2g\	mi-	.	.	.	.
2e\	-ro	.	.	2c\	-ro	2g\	-ro	.	.	.	.
=27-	=27-	=27-	=27-	=27-	=27-	=27-	=27-	=27-	=27-	=27-	=27-
00r	.	2cc\	E	00r	.	00r	.	2a\	E	2r	.
.	.	4cc\	pur	.	.	.	.	4a\	pur	2ee\	E
.	.	4cc\	ſe	.	.	.	.	4a\	ſe	.	.
.	.	2.cc\	gl'oc-	.	.	.	.	1a	gl'oc-	4ee\	pur
.	.	.	.	.	.	.	.	.	.	4ee\	ſe
.	.	.	.	.	.	.	.	.	.	4ee\	gl'oc-
.	.	4dd\	-chi	.	.	.	.	.	.	4dd\	-chi
*	*	*	*	*	*	*	*	*	*	*custos:cc	*
!	!	!	!	!	!	!	!	!	!	!LO:LB:g=original	!
=28-	=28-	=28-	=28-	=28-	=28-	=28-	=28-	=28-	=28-	=28-	=28-
*	*	*	*	*	*	*	*	*	*	*xywh-#710:4803,3370,3460,661	*
.	.	8ee\	gi-	.	.	.	.	1a	-chi	8cc\	gi-
.	.	8dd\	.	.	.	.	.	.	.	8b\	.
.	.	8cc\	.	.	.	.	.	.	.	8a/	.
.	.	8b\	.	.	.	.	.	.	.	8b\	.
.	.	8a/	.	.	.	.	.	.	.	8cc\	.
.	.	8b/	.	.	.	.	.	.	.	8dd\	.
.	.	8cc\	.	.	.	.	.	.	.	8ee\	.
.	.	8a/	.	.	.	.	.	.	.	8cc\	.
*	*	*	*	*	*	*	*	*custos:g	*	*	*
!	!	!	!	!	!	!	!	!LO:LB:g=original	!	!	!
*	*	*	*	*	*	*	*	*xywh-#558:4777,3376,3317,706	*	*	*
.	.	2b/	.	.	.	.	.	2g\	gi-	2dd\	.
.	.	4b/	-ro	.	.	.	.	4g\	-ro	4dd\	-ro
.	.	4cc\	Ne i	.	.	.	.	4c/	Ne i	4ee\	Ne i
=29-	=29-	=29-	=29-	=29-	=29-	=29-	=29-	=29-	=29-	=29-	=29-
00r	.	4.cc\	ſuoi	00r	.	00r	.	4.f\	fuoi	4.a/	fuoi
.	.	8cc\	begl'	.	.	.	.	8e/	begl'	8g/	begl'
.	.	4ff\	oc-	.	.	.	.	4d/	oc-	4a/	oc-
.	.	4ee\	-chi il	.	.	.	.	4c/	-chi il	4cc\	-chi il
.	.	2dd\	mi-	.	.	.	.	2g\	mi-	2b/	mi-
.	.	2dd\	-ro	.	.	.	.	2g\	-ro	2b/	-ro
*	*	*custos:cc	*	*	*	*	*	*	*	*	*
!	!	!LO:LB:g=original	!	!	!	!	!	!	!	!	!
=30-	=30-	=30-	=30-	=30-	=30-	=30-	=30-	=30-	=30-	=30-	=30-
*	*	*xywh-#102:4564,3442,3421,663	*	*	*	*	*	*	*	*	*
.	.	4.cc\	Ma	.	.	.	.	4.c/	Ma	4.ee\	Ma-
.	.	8b/	no'l	.	.	.	.	8d/	no'l	8dd\	-no I
.	.	4a/	poſ-	.	.	.	.	4f\	poſ-	4cc\	poſ-
.	.	8a/	-ſo	.	.	.	.	8f\	-ſo	8cc\	-ſo
.	.	8g/	toc-	.	.	.	.	8g\	toc-	8b/	toc-
.	.	4f/	-car	.	.	.	.	2d/	-car	4a/	-car
*	*	*	*ij	*	*	*	*	*	*	*	*ij
.	.	8ff\	Ma	.	.	.	.	.	.	8dd\	Ma
.	.	8ee\	no'l	.	.	.	.	.	.	8cc\	no i
*	*	*	*	*	*	*	*	*	*	*custos:b	*
!	!	!	!	!	!	!	!	!	!	!LO:LB:g=original	!
*	*	*	*	*	*	*	*	*	*	*xywh-#710:4780,3903,3415,654	*
.	.	4dd\	pos-	.	.	.	.	2d/	che	4b/	pos-
.	.	8dd\	-so	.	.	.	.	.	.	8b/	-so
.	.	8cc\	toc-	.	.	.	.	.	.	8a/	toc-
=31-	=31-	=31-	=31-	=31-	=31-	=31-	=31-	=31-	=31-	=31-	=31-
0r	.	4b/	-car	0r	.	0r	.	1e	ſol	4g/	-car
*	*	*	*Xij	*	*	*	*	*	*	*	*
.	.	8ee\	Ma	.	.	.	.	.	.	8gg\	Ma
.	.	8dd\	nol	.	.	.	.	.	.	8ff\	no'l
.	.	4cc\	poſ-	.	.	.	.	.	.	4ee\	pos-
.	.	8cc\	-ſo	.	.	.	.	.	.	8ee\	-so
.	.	8b/	toc-	.	.	.	.	.	.	8dd\	toc-
.	.	4a/	-car	.	.	.	.	1f	ſi	4cc\	-car
*	*	*	*	*	*	*	*	*	*	*	*Xij
.	.	4cc\	che	.	.	.	.	.	.	4a/	che
.	.	4ff\	ſol	.	.	.	.	.	.	4dd\	ſol
.	.	4ee\	ſi	.	.	.	.	.	.	4cc\	ſi
*	*	*custos:dd	*	*	*	*	*	*	*	*	*
!	!	!LO:LB:g=original	!	!	!	!	!	!	!	!	!
=32-	=32-	=32-	=32-	=32-	=32-	=32-	=32-	=32-	=32-	=32-	=32-
*	*	*xywh-#102:4606,3988,3297,608	*	*	*	*	*	*	*	*	*
2r	.	2dd\	toc-	2r	.	2r	.	2g\	toc-	2b/	toc-
*	*	*	*	*	*	*	*	*custos:g	*	*	*
!	!	!	!	!	!	!	!	!LO:LB:g=original	!	!	!
*	*	*	*	*	*	*	*	*xywh-#558:4762,3898,3356,698	*	*	*
4r	.	2dd\	-ca	4r	.	4r	.	4g\	-ca	2b/	-ca
4d\	In	.	.	4G\	In	4g\	In	4b\	In	.	.
4.e\	quel-	1r	.	4.c\	quel-	4.g\	quel-	4.cc\	quel-	1r	.
8e\	-la	.	.	8c\	-la	8g\	-la	8cc\	-la	.	.
4e\	bel-	.	.	4c\	bel-	4g\	bel-	4cc\	bel-	.	.
4d\	-la	.	.	4d\	-la	4f\	-la	4a\	-la	.	.
*custos:c	*	*	*	*	*	*	*	*	*	*	*
!LO:LB:g=original	!	!	!	!	!	!	!	!	!	!	!
=33-	=33-	=33-	=33-	=33-	=33-	=33-	=33-	=33-	=33-	=33-	=33-
*xywh-#20:4546,4023,3323,650	*	*	*	*	*	*	*	*	*	*	*
2c#X/	boc-	2r	.	2A\	boc-	2e\	boc-	2a\	boc-	2r	.
1d	-ca	4.dd\	Ma	2D/	-ca	2f#X\	-ca	2a\	-ca	4r	.
.	.	.	.	.	.	.	.	.	.	4.dd\	Ma
.	.	8cc\	no'l	.	.	.	.	.	.	.	.
.	.	4b/	poſ-	4.G\	Ma	1r	.	4r	.	.	.
.	.	.	.	.	.	.	.	.	.	8cc\	no'l
.	.	8b/	-ſo	.	.	.	.	4.g\	Ma	4b/	poſ-
.	.	8a/	toc-	8F/	no'l	.	.	.	.	.	.
2r	.	4g/	-car	4E/	poſ-	.	.	.	.	8b/	-ſo
.	.	.	.	.	.	.	.	8f\	no'l	8a/	toc-
*	*	*	*ij	*	*	*	*	*	*	*	*
.	.	8gg\	Ma	8E/	-ſo	.	.	4e/	poſ-	4g/	-car
.	.	8ff\	no'l	8D/	toc-	.	.	.	.	.	.
*	*	*	*	*custos:C	*	*	*	*	*	*	*
!	!	!	!	!LO:LB:g=original	!	!	!	!	!	!	!
=34-	=34-	=34-	=34-	=34-	=34-	=34-	=34-	=34-	=34-	=34-	=34-
*	*	*	*	*xywh-#254:4760,3983,3390,713	*	*	*	*	*	*	*ij
4.e\	Ma	4ee\	pos-	1C	-car	1r	.	8e/	-ſo	4.gg\	Ma
.	.	.	.	.	.	.	.	8d/	toc-	.	.
.	.	8ee\	-so	.	.	.	.	2c/	-car	.	.
8d\	no'l	8ff\	toc-	.	.	.	.	.	.	8ff\	no'l
4cny/	poſ-	2gg\	-car	.	.	.	.	.	.	4ee\	pos-
8c/	-ſo	.	.	.	.	.	.	4G/	che	8ee\	-so
8B/	toc-	.	.	.	.	.	.	.	.	8ee\	toc-
*	*	*	*Xij	*	*	*	*	*	*	*custos:dd	*
!	!	!	!	!	!	!	!	!	!	!LO:LB:g=original	!
*	*	*	*	*	*	*	*	*	*	*xywh-#710:4788,4435,3384,760	*
4A/	-car	1r	.	1D	che	4.fny\	Ma	2d/	ſol	1dd	-car
8d\	Ma	.	.	.	.	.	.	.	.	.	.
8c/	no'l	.	.	.	.	8e\	no'l	.	.	.	.
*	*	*	*	*	*	*custos:d	*	*	*	*	*
!	!	!	!	!	!	!LO:LB:g=original	!	!	!	!	!
*	*	*	*	*	*	*xywh-#406:4693,3864,3448,737	*	*	*	*	*
4B/	poſ-	.	.	.	.	4d\	poſ-	2f#X\	ſi	.	.
8B/	-ſo	.	.	.	.	8d\	-ſo	.	.	.	.
8A/	toc-	.	.	.	.	8cny/	toc-	.	.	.	.
*	*	*	*	*	*	*	*	*	*	*	*Xij
=35-	=35-	=35-	=35-	=35-	=35-	=35-	=35-	=35-	=35-	=35-	=35-
4G/	-car	1r	.	1E	ſol	4B/	-car	1g	toc-	1r	.
8g\	Ma	.	.	.	.	8e\	Ma	.	.	.	.
8f\	no'l	.	.	.	.	8d\	no'l	.	.	.	.
4e\	poſ-	.	.	.	.	4c/	poſ-	.	.	.	.
8e\	-ſo	.	.	.	.	8c/	-ſo	.	.	.	.
8d\	toc-	.	.	.	.	8B/	toc-	.	.	.	.
2c/	-car	4.ff\	Ma	1F	ſi	1A	-car	1a	-ca	4.aa\	Ma
.	.	8ee\	nol	.	.	.	.	.	.	8gg\	no l
2r	.	4dd\	poſ-	.	.	.	.	.	.	4ff\	poſ-
.	.	8dd\	-ſo	.	.	.	.	.	.	8ff\	-ſo
.	.	8cc\	toc-	.	.	.	.	.	.	8ee\	toc-
*custos:g	*	*custos:b	*	*	*	*	*	*	*	*	*
!LO:LB:g=original	!	!LO:LB:g=original	!	!	!	!	!	!	!	!	!
=36-	=36-	=36-	=36-	=36-	=36-	=36-	=36-	=36-	=36-	=36-	=36-
*xywh-#20:4539,4526,3344,692	*	*xywh-#102:4585,4492,3414,635	*	*	*	*	*	*	*	*	*
2g\	che	4b/	-car	1.G	toc-	4r	.	1r	.	4dd\	-car
.	.	4g/	che	.	.	4d\	che	.	.	4b/	che
4g\	ſol	4b/	ſol	.	.	4d\	ſol	.	.	4dd\	ſol
4e\	ſi	4cc\	ſi	.	.	4g\	ſi	.	.	4cc\	ſi
2d\	toc-	2dd\	toc-	.	.	2g\	toc-	2r	.	2b/	toc-
4d\	-ca	4dd\	-ca	4G\	-ca	4g\	-ca	4r	.	4b/	-ca
4c/	In	4ee\	In	4C/	In	4e\	In	4g\	In	4cc\	In
*	*	*	*	*	*	*	*	*custos:a	*	*	*
!	!	!	!	!	!	!	!	!LO:LB:g=original	!	!	!
=37-	=37-	=37-	=37-	=37-	=37-	=37-	=37-	=37-	=37-	=37-	=37-
*	*	*	*	*	*	*	*	*xywh-#558:4816,4451,3294,783	*	*	*
4.A/	quel-	4.ff\	quel-	4.F/	quel-	4.c/	quel-	4.a\	quel-	4.cc\	quel-
8A/	-la	8ff\	-la	8F/	-la	8c/	-la	8a\	-la	8cc\	-la
4A/	bel-	4ff\	bel-	4F/	bel-	4c/	bel-	4a\	bel-	4cc\	bel-
4d\	-la	4dd\	-la	4G\	-la	4G/	-la	4g\	-la	4b/	-la
2d\	boc-	2dd\	boc-	2D/	boc-	2A/	boc-	2f#X\	boc-	2a/	boc-
*	*	*	*	*	*	*custos:G	*	*	*	*	*
!	!	!	!	!	!	!LO:LB:g=original	!	!	!	!	!
*	*	*	*	*	*	*xywh-#406:4777,4432,3363,783	*	*	*	*	*
4d\	-ca	4dd\	-ca	4G\	-ca	4G/	-ca	4g\	-ca	4b/	-ca
*	*	*	*	*	*	*	*	*	*	*	*ij
4e\	In	4cc\	In	4C/	In	4c/	In	4g\	In	4ee\	In
=38-	=38-	=38-	=38-	=38-	=38-	=38-	=38-	=38-	=38-	=38-	=38-
4.c/	quel-	4.cc\	quel-	4.F/	quel-	4.A/	quel-	4.a\	quel-	4.ff\	quel-
8c/	-la	8cc\	-la	8F/	-la	8A/	-la	8a\	-la	8ff\	-la
4c/	bel-	4cc\	bel-	4F/	bel-	4A/	bel-	4a\	bel-	4ff\	bel-
4G/	-la	4b/	-la	4G\	-la	4d\	-la	2g\	-la	4dd\	-la
1A	boc-	1a	boc-	1C	boc-	1d	boc-	.	.	1dd	boc-
.	.	.	.	.	.	.	.	8f#X\	boc-	.	.
.	.	.	.	.	.	.	.	8e\	.	.	.
.	.	.	.	.	.	.	.	2f#X\	.	.	.
=39-	=39-	=39-	=39-	=39-	=39-	=39-	=39-	=39-	=39-	=39-	=39-
00G	-ca.	00b	-ca.	00G	-ca.	00d	-ca.	00g	-ca.	00dd	-ca
*	*	*	*	*	*	*	*	*	*	*	*Xij
==	==	==	==	==	==	==	==	==	==	==	==
*-	*-	*-	*-	*-	*-	*-	*-	*-	*-	*-	*-
!!!system-decoration: [(s1,s2,s3,s4,s5,s6)]
!!!ENC: Andrzej Gręziak
!!!END: 2022-06-14
!!!ENC: Jan Barakat
!!!END: 2022-07-24
!!!ENC-iiif: Jolanta Bujas-Poniatowska
!!!END-iiif: 2022-09-23
